packages/dnb-ui-lib/assets/icons/owl_medium.svg

<svg width="24" height="25" viewBox="0 0 24 25" fill="none" xmlns="http://www.w3.org/2000/svg">
<path d="M3.75 3.00015L11.61 0.859148C11.8687 0.789138 12.1413 0.789138 12.4 0.859148L20.25 3.00015L12.4 5.14415C12.1397 5.21474 11.8652 5.21439 11.605 5.14315L3.75 3.00015ZM3.75 3.00015V6.00115M17.25 7.15415V3.82015M7.5 4.02415V6.84715M9.484 12.4861L12 15.0011L14.516 12.4861M18 15.0001V17.3371C18 18.9284 17.3679 20.4546 16.2426 21.5798C15.1174 22.705 13.5913 23.3371 12 23.3371C10.4087 23.3371 8.88258 22.705 7.75736 21.5798C6.63214 20.4546 6 18.9284 6 17.3371V15.0001M18.225 11.4471C18.6634 11.3917 19.1085 11.4296 19.5312 11.5584C19.9539 11.6872 20.3445 11.904 20.6774 12.1945C21.0103 12.485 21.278 12.8427 21.4629 13.2441C21.6477 13.6454 21.7456 14.0813 21.75 14.5231V16.5881C21.7431 17.3125 21.5855 18.0275 21.2871 18.6876C20.9887 19.3476 20.5561 19.9384 20.0169 20.4221C19.4777 20.9058 18.8437 21.2719 18.1552 21.4971C17.4667 21.7223 16.7388 21.8017 16.018 21.7301M5.657 11.2621C5.22322 11.2265 4.78676 11.2811 4.37517 11.4226C3.96357 11.5642 3.58578 11.7895 3.26564 12.0843C2.9455 12.3792 2.68996 12.7372 2.51515 13.1358C2.34034 13.5344 2.25006 13.9649 2.25 14.4001V16.5001C2.24985 17.2304 2.402 17.9526 2.69674 18.6207C2.99147 19.2888 3.42231 19.888 3.96173 20.3802C4.50115 20.8724 5.13729 21.2467 5.82952 21.4791C6.52175 21.7115 7.25486 21.797 7.982 21.7301M11.25 9.75115C11.25 11.408 9.90685 12.7511 8.25 12.7511C6.59315 12.7511 5.25 11.408 5.25 9.75115C5.25 8.09429 6.59315 6.75115 8.25 6.75115C9.90685 6.75115 11.25 8.09429 11.25 9.75115ZM18.75 9.75115C18.75 11.408 17.4069 12.7511 15.75 12.7511C14.0931 12.7511 12.75 11.408 12.75 9.75115C12.75 8.09429 14.0931 6.75115 15.75 6.75115C17.4069 6.75115 18.75 8.09429 18.75 9.75115Z" stroke="black" stroke-width="1.5" stroke-linecap="round" stroke-linejoin="round"/>
<path d="M16.75 9.75C16.75 10.3023 16.3023 10.75 15.75 10.75C15.1977 10.75 14.75 10.3023 14.75 9.75C14.75 9.19772 15.1977 8.75 15.75 8.75C16.3023 8.75 16.75 9.19772 16.75 9.75Z" fill="black"/>
<path d="M9.25 9.75C9.25 10.3023 8.80228 10.75 8.25 10.75C7.69772 10.75 7.25 10.3023 7.25 9.75C7.25 9.19772 7.69772 8.75 8.25 8.75C8.80228 8.75 9.25 9.19772 9.25 9.75Z" fill="black"/>
</svg>

<svg width="24" height="24" viewBox="0 0 24 25" fill="none" xmlns="http://www.w3.org/2000/svg"><path d="M3.75 3L11.61.86c.259-.07.531-.07.79 0L20.25 3 12.4 5.144c-.26.07-.535.07-.795 0L3.75 3zm0 0v3.001m13.5 1.153V3.82m-9.75.204v2.823m1.984 5.64L12 15l2.516-2.515M18 15v2.337a6 6 0 11-12 0V15m12.225-3.553a3.133 3.133 0 013.525 3.076v2.065a5.217 5.217 0 01-5.732 5.142M5.657 11.262A3.15 3.15 0 002.25 14.4v2.1a5.251 5.251 0 005.732 5.23M11.25 9.751a3 3 0 11-6 0 3 3 0 016 0zm7.5 0a3 3 0 11-6 0 3 3 0 016 0z" stroke="#000" stroke-width="1.5" stroke-linecap="round" stroke-linejoin="round"/><path d="M16.75 9.75a1 1 0 11-2 0 1 1 0 012 0zM9.25 9.75a1 1 0 11-2 0 1 1 0 012 0z" fill="#000"/></svg>
